images/offers/book-reader.svg

<svg width="35" height="35" viewBox="0 0 35 35" fill="none" xmlns="http://www.w3.org/2000/svg">
<g clip-path="url(#clip0_34_2)">
<path d="M24.0625 6.5625C24.0625 2.93809 21.1244 0 17.5 0C13.8756 0 10.9375 2.93809 10.9375 6.5625C10.9375 10.1869 13.8756 13.125 17.5 13.125C21.1244 13.125 24.0625 10.1869 24.0625 6.5625ZM15.9681 16.4814C11.9123 13.9986 5.34297 13.3164 2.03711 13.1284C0.926269 13.0655 0 13.9118 0 14.9803V30.2107C0 31.1903 0.792285 32.0072 1.81084 32.0599C4.79541 32.2164 10.8336 32.7899 15.0069 34.892C15.6475 35.2146 16.4069 34.7751 16.4069 34.0806V17.2648C16.4062 16.9456 16.2483 16.653 15.9681 16.4814ZM32.9629 13.1284C29.6577 13.3157 23.0877 13.9986 19.0326 16.4814C18.7523 16.653 18.5944 16.9572 18.5944 17.2765V34.0785C18.5944 34.7751 19.356 35.2153 19.9985 34.892C24.1712 32.792 30.206 32.2185 33.1898 32.0619C34.2084 32.0086 35.0007 31.1917 35.0007 30.2121V14.9803C35 13.9118 34.0737 13.0655 32.9629 13.1284Z" fill="white"/>
</g>
<defs>
<clipPath id="clip0_34_2">
<rect width="35" height="35" fill="white"/>
</clipPath>
</defs>
</svg>

<svg width="35" height="35" xmlns="http://www.w3.org/2000/svg" fill="none" viewBox="0 0 35 35"><g clip-path="url(#a)"><path fill="#fff" d="M24.063 6.563a6.562 6.562 0 1 0-13.125 0 6.562 6.562 0 0 0 13.124 0Zm-8.095 9.918C11.912 14 5.343 13.316 2.038 13.128.925 13.065 0 13.912 0 14.98v15.23c0 .98.792 1.797 1.81 1.85 2.985.156 9.024.73 13.197 2.832.64.323 1.4-.117 1.4-.811V17.265a.91.91 0 0 0-.439-.784Zm16.995-3.353c-3.305.188-9.875.87-13.93 3.353a.927.927 0 0 0-.439.795v16.802c0 .697.762 1.137 1.404.814 4.173-2.1 10.208-2.674 13.192-2.83 1.018-.053 1.81-.87 1.81-1.85V14.98c0-1.068-.926-1.915-2.037-1.852Z"/></g><defs><clipPath id="a"><path fill="#fff" d="M0 0h35v35H0z"/></clipPath></defs></svg>
